X:1
T:Harrow, LM
T:Harrow, LM
T:Anonymous, 1864
T:Public Domain Courtesy of the Cyber Hymnal™
C:Anonymous, 1864
Z:Public Domain
Z:Courtesy of the Cyber Hymnal™
%%score 1 ( 2 3 ) 4
L:1/8
Q:1/4=105
M:4/4
K:F
V:1 treble 
V:2 treble 
V:3 treble 
V:4 bass 
V:1
 A2 | c2 c2 c2 c2 | c2 F2 !fermata!G2 B2 | G2 A2 c2 A2 | B2 G2 !fermata!A2 E2 | (FG) (AB) c2 c2 | %6
 A2 G2 !fermata!G2 F2 | B2 c2 c2 A2 | B2 G2 !fermata!A8 |] %9
V:2
 [CF]2 | [FA]2 [Gc]2 [FA]2 [EG]2 | [FA]2 [F=B]2 !fermata![Ec]2 [Fd]2 | (cB) [FA]2 [EG]2 [DF]2 | %4
 [DF]2 [CE]2 !fermata![CF]2 [CG]2 | [CA]2 A2 [EG]2 [Ec]2 | [Fc]2 [D=B]2 !fermata![Ec]2 [FA]2 | %7
 B2 [FA]2 [EG]2 [DF]2 | [DF]2 [CE]2 !fermata![CF]8 |] %9
V:3
 x2 | x8 | x8 | E2 x6 | x8 | x2 (CD) x4 | x8 | (DE) x6 | x12 |] %9
V:4
 F,2 | F,2 E,2 F,2 C,2 | F,2 D,2 !fermata!C,2 B,,2 | C,2 F,2 C,2 D,2 | B,,2 C,2 !fermata!F,2 C,2 | %5
 F,2 F,2 C,2 A,2 | F,2 G,2 !fermata!C,2 D,2 | G,,2 (A,,B,,) C,2 D,2 | B,,2 C,2 !fermata!F,8 |] %9

